public/assets/images/3.svg

<svg height="24" viewBox="0 0 24 24" width="24" xmlns="http://www.w3.org/2000/svg"><path d="m4 16c0 .88.39 1.67 1 2.22v1.78c0 .55.45 1 1 1h1c.55 0 1-.45 1-1v-1h8v1c0 .55.45 1 1 1h1c.55 0 1-.45 1-1v-1.78c.61-.55 1-1.34 1-2.22v-10c0-3.5-3.58-4-8-4s-8 .5-8 4z" fill="#f9f9f9" stroke="#fff" stroke-width="3"/><path d="m4 16c0 .88.39 1.67 1 2.22v1.78c0 .55.45 1 1 1h1c.55 0 1-.45 1-1v-1h8v1c0 .55.45 1 1 1h1c.55 0 1-.45 1-1v-1.78c.61-.55 1-1.34 1-2.22v-10c0-3.5-3.58-4-8-4s-8 .5-8 4zm3.5 1c-.83 0-1.5-.67-1.5-1.5s.67-1.5 1.5-1.5 1.5.67 1.5 1.5-.67 1.5-1.5 1.5zm9 0c-.83 0-1.5-.67-1.5-1.5s.67-1.5 1.5-1.5 1.5.67 1.5 1.5-.67 1.5-1.5 1.5zm1.5-6h-12v-5h12z" fill="#800080"/><g fill="#fff"><path d="m9.60928677 12.1573321h1.36363638v1.37829913h-1.36363638z"/><path d="m11.44213136 12.1573321h1.36363638v1.37829913h-1.36363638z"/><path d="m13.24565021 12.1573321h1.36363638v1.37829913h-1.36363638z"/><circle cx="11.156642" cy="14.61291" r=".740904"/><circle cx="13.092126" cy="14.61291" r=".740904"/></g></svg>

<?xml version="1.0" encoding="UTF-8" standalone="no"?>
<!DOCTYPE svg PUBLIC "-//W3C//DTD SVG 1.1//EN" "http://www.w3.org/Graphics/SVG/1.1/DTD/svg11.dtd">
<svg width="100%" height="100%" viewBox="0 0 24 24" version="1.1" xmlns="http://www.w3.org/2000/svg" xmlns:xlink="http://www.w3.org/1999/xlink" xml:space="preserve" xmlns:serif="http://www.serif.com/" style="fill-rule:evenodd;clip-rule:evenodd;">
    <path d="M4,16C4,16.88 4.39,17.67 5,18.22L5,20C5,20.55 5.45,21 6,21L7,21C7.55,21 8,20.55 8,20L8,19L16,19L16,20C16,20.55 16.45,21 17,21L18,21C18.55,21 19,20.55 19,20L19,18.22C19.61,17.67 20,16.88 20,16L20,6C20,2.5 16.42,2 12,2C7.58,2 4,2.5 4,6L4,16Z" style="fill:rgb(249,249,249);fill-rule:nonzero;stroke:white;stroke-width:3px;"/>
    <path d="M4,16C4,16.88 4.39,17.67 5,18.22L5,20C5,20.55 5.45,21 6,21L7,21C7.55,21 8,20.55 8,20L8,19L16,19L16,20C16,20.55 16.45,21 17,21L18,21C18.55,21 19,20.55 19,20L19,18.22C19.61,17.67 20,16.88 20,16L20,6C20,2.5 16.42,2 12,2C7.58,2 4,2.5 4,6L4,16ZM7.5,17C6.67,17 6,16.33 6,15.5C6,14.67 6.67,14 7.5,14C8.33,14 9,14.67 9,15.5C9,16.33 8.33,17 7.5,17ZM16.5,17C15.67,17 15,16.33 15,15.5C15,14.67 15.67,14 16.5,14C17.33,14 18,14.67 18,15.5C18,16.33 17.33,17 16.5,17ZM18,11L6,11L6,6L18,6L18,11Z" style="fill:rgb(128,0,128);fill-rule:nonzero;"/>
    <g>
        <rect x="9.609" y="12.157" width="1.364" height="1.378" style="fill:white;fill-rule:nonzero;"/>
        <rect x="11.442" y="12.157" width="1.364" height="1.378" style="fill:white;fill-rule:nonzero;"/>
        <rect x="13.246" y="12.157" width="1.364" height="1.378" style="fill:white;fill-rule:nonzero;"/>
        <circle cx="11.157" cy="14.613" r="0.741" style="fill:white;"/>
        <circle cx="13.092" cy="14.613" r="0.741" style="fill:white;"/>
    </g>
</svg>
